!!!SOCIAL_FUNCTION:	songs of the bat dance
!!!PDT:	1929
!!!OTL: No_150_Opening_Song_of_the_Bat_Dance.krn
!!!REG: Southwest
!!!LANG: Non-Tone
!!!LING_GROUP: Uto-Aztecan
**kern
*staff1
=1-
*clefF4
*k[b-e-a-]
*M2/4
2c\
=2
4c\
4c\
=3
4B-\
8.G\L
16G\Jk
=4||
*M3/4
2G\
4r
=5||
*M2/4
2B-\
=6
4B-\
4B-\
=7
4G\
8.F\L
16F\Jk
=8||
*M3/4
2E-\
8C/
8r
=9||
*M2/4
4E-\
8.C/L
16E-/Jk
=10
12E-\L
12E-\
12E-\J
8E-\L
8E-\J
=11||
*M3/4
2E-\
4r
=12||
*M2/4
4G\
8B-\L
8B-\J
=13
4B-\
8.B-\L
16B-\Jk
=14
4G\
8.G\L
16G\Jk
=15
4G\
8.F\L
16G\Jk
=16
4F\
4E-\
=17
2C/
=18
4r
4C/
=19
4B-\
(8.B-\L
16G\Jk)
=20
8.G\L
16F\Jk
(8.G\L
16F\Jk)
=21||
*M3/4
8.E-\L
16E-\Jk
4E-\
8.C/L
16C/Jk
=22||
*M2/4
2E-\
=23
2r
=24
4E-\
4E-\
=25
8E-\L
8E-\J
8E-\L
8E-\J
=26
2E-\
==
*-
